X:1
T:[ID 8-85a]
T:[ID 8-85a]
T:Bezeichnung standardisiert: Schwabisch Schwabisch \"Ahnlich in dieser Quelle: ID 5-61b (Anm. S. Wascher); \"Ahnlich in anderer Quelle: 17. Quadrille - Hs. pour Monsieur Nahke, 1800 (Anm. S. Wascher);
T:Urheber unbekannt Erstbeleg: 1773 (Datum in der schriftlichen Quelle) Datum in der hier transkribierten schriftlichen Quelle: 1792
C:Urheber unbekannt
C:Erstbeleg: 1773 (Datum in der schriftlichen Quelle)
C:Datum in der hier transkribierten schriftlichen Quelle: 1792
L:1/8
M:3/8
K:D
V:1 treble 
V:1
 AAF/G/ | AAF/G/ | ABc | d/c/d/e/d | AAF/G/ | AAF/G/ | ABc | d3 :: geg | fdf | edc | d/c/d/e/d | %12
 AAF/G/ | AAF/G/ | ABc | d3 :| %16

